icons/Password-two-color.svg

<?xml version="1.0" encoding="UTF-8"?><svg id="uuid-fc9938e1-1e7d-449b-b130-0d9a1d23b798" xmlns="http://www.w3.org/2000/svg" viewBox="0 0 50 50"><circle cx="41.68" cy="42.91" r="5.61" fill="#ffcd00"/><g><path d="M34.66,12.26v4.72h-1.58v-4.4c0-4.1-3.34-7.43-7.44-7.43s-7.44,3.33-7.44,7.43v4.4h-1.58v-4.72c0-4.97,4.05-9.01,9.02-9.01s9.02,4.04,9.02,9.01" fill="#ffcd00"/><path d="M25.87,18H14.3v13.2h23.14v-13.2h-11.57Zm1.16,7.76v2.51c0,.55-.45,1-1,1h-2.12c-.55,0-1-.45-1-1v-2.51c-.92-.66-1.47-1.72-1.47-2.86,0-1.94,1.58-3.53,3.53-3.53s3.53,1.59,3.53,3.53c0,1.14-.55,2.2-1.47,2.86Z" fill="#ffcd00"/><path d="M47.23,30.8v11.2c0,3.59-2.92,6.5-6.5,6.5s-6.22-2.65-6.48-6H3.21c-.27,0-.5-.22-.5-.5v-11.2c0-.28,.23-.5,.5-.5H12.4v-13.2c0-.55,.45-1,1-1h1.55v-4.61c0-5.52,4.5-10.01,10.02-10.01s10.02,4.49,10.02,10.01v4.61h1.55c.55,0,1,.45,1,1v13.2h9.19c.27,0,.5,.22,.5,.5m-1,7.75v-7.25H3.71v10.2h30.54c.26-3.35,3.06-6,6.48-6,2.31,0,4.35,1.22,5.5,3.05m0,3.45c0-.17-.01-.33-.03-.5-.25-2.8-2.61-5-5.47-5s-5.22,2.2-5.48,5c0,.17-.02,.33-.02,.5s0,.34,.02,.5c.26,2.8,2.61,5,5.48,5s5.22-2.2,5.47-5c.02-.16,.03-.33,.03-.5m-9.69-11.7v-13.2H13.4v13.2h23.14Zm-2.55-14.09v-4.72c0-4.97-4.05-9.01-9.02-9.01S15.95,6.52,15.95,11.49v4.72h1.58v-4.4c0-4.1,3.34-7.43,7.44-7.43s7.44,3.33,7.44,7.43v4.4h1.58Zm-2.58-.11v-4.29c0-3.55-2.89-6.43-6.44-6.43s-6.44,2.88-6.44,6.43v4.29h12.88Z"/><path d="M43.49,38.74c.23,.14,.31,.44,.17,.68l-1.21,2.08-.59,1-1.51,2.59c-.08,.14-.23,.23-.39,.25h-.04c-.15,0-.29-.07-.39-.19l-1.7-2.07c-.13-.17-.14-.4-.03-.58,.03-.04,.06-.09,.11-.12,.21-.18,.53-.15,.7,.07l.05,.05,1.19,1.46,.85-1.46,.59-1,1.51-2.58c.14-.24,.45-.32,.69-.18"/><polygon points="34.02 35.05 34.4 36.23 32.33 36.81 33.69 38.53 32.66 39.26 31.48 37.37 30.32 39.19 29.29 38.49 30.69 36.73 28.66 36.16 29.04 34.99 31.05 35.8 30.92 33.54 32.19 33.54 32.06 35.84 34.02 35.05"/><path d="M24.97,19.37c1.95,0,3.53,1.59,3.53,3.53,0,1.14-.55,2.2-1.47,2.86v2.51c0,.55-.45,1-1,1h-2.12c-.55,0-1-.45-1-1v-2.51c-.92-.66-1.47-1.72-1.47-2.86,0-1.94,1.58-3.53,3.53-3.53m2.53,3.53c0-1.39-1.13-2.53-2.53-2.53s-2.53,1.14-2.53,2.53c0,.91,.49,1.75,1.29,2.2,.11,.06,.18,.18,.18,.3v2.87h2.12v-2.87c0-.12,.07-.24,.18-.3,.8-.45,1.29-1.29,1.29-2.2"/><polygon points="26.23 35.05 26.61 36.23 24.54 36.81 25.9 38.53 24.87 39.26 23.69 37.37 22.53 39.19 21.5 38.49 22.9 36.73 20.87 36.16 21.25 34.99 23.26 35.8 23.13 33.54 24.4 33.54 24.27 35.84 26.23 35.05"/><polygon points="18.44 35.05 18.82 36.23 16.76 36.81 18.11 38.53 17.09 39.26 15.91 37.37 14.74 39.19 13.72 38.49 15.11 36.73 13.08 36.16 13.46 34.99 15.48 35.8 15.35 33.54 16.61 33.54 16.48 35.84 18.44 35.05"/><polygon points="10.66 35.05 11.04 36.23 8.97 36.81 10.33 38.53 9.3 39.26 8.12 37.37 6.96 39.19 5.93 38.49 7.33 36.73 5.3 36.16 5.68 34.99 7.69 35.8 7.56 33.54 8.83 33.54 8.7 35.84 10.66 35.05"/></g></svg>

<svg id="fe374270-fafd-4033-9577-3c2186b4aba5" data-name="ICONS" xmlns="http://www.w3.org/2000/svg" viewBox="0 0 50 50"><circle cx="41.68" cy="42.91" r="5.61" fill="#fdd600"/><path d="M34.66,12.26V17H33.08v-4.4a7.44,7.44,0,0,0-14.88,0V17H16.62V12.26a9,9,0,0,1,18,0" fill="#fdd600"/><path d="M25.87,18H14.3V31.2H37.44V18ZM27,25.76v2.51a1,1,0,0,1-1,1H23.91a1,1,0,0,1-1-1V25.76a3.53,3.53,0,1,1,4.12,0Z" fill="#fdd600"/><path d="M47.23,30.8V42a6.5,6.5,0,0,1-13,.5h-31a.5.5,0,0,1-.5-.5V30.8a.5.5,0,0,1,.5-.5H12.4V17.1a1,1,0,0,1,1-1H15V11.49a10,10,0,0,1,20,0V16.1h1.55a1,1,0,0,1,1,1V30.3h9.19a.5.5,0,0,1,.5.5m-1,7.75V31.3H3.71V41.5H34.25a6.49,6.49,0,0,1,12-3m0,3.45a4.19,4.19,0,0,0,0-.5,5.5,5.5,0,0,0-11,0c0,.17,0,.33,0,.5s0,.34,0,.5a5.5,5.5,0,0,0,11,0,4.07,4.07,0,0,0,0-.5M36.54,30.3V17.1H13.4V30.3H36.54ZM34,16.21V11.49a9,9,0,0,0-18,0v4.72h1.58v-4.4a7.44,7.44,0,0,1,14.88,0v4.4Zm-2.58-.11V11.81a6.44,6.44,0,0,0-12.88,0V16.1Z" fill="#231f20"/><path d="M43.49,38.74a.5.5,0,0,1,.17.68L42.45,41.5l-.59,1-1.51,2.59a.52.52,0,0,1-.39.25h0a.51.51,0,0,1-.39-.19l-1.7-2.07a.51.51,0,0,1,0-.58.41.41,0,0,1,.11-.12.49.49,0,0,1,.7.07l0,0L39.85,44l.85-1.46.59-1,1.51-2.58a.51.51,0,0,1,.69-.18" fill="#231f20"/><polygon points="34.02 35.05 34.4 36.23 32.33 36.81 33.69 38.53 32.66 39.26 31.48 37.37 30.32 39.19 29.29 38.49 30.69 36.73 28.66 36.16 29.04 34.99 31.05 35.8 30.92 33.54 32.19 33.54 32.06 35.84 34.02 35.05" fill="#231f20"/><path d="M25,19.37A3.53,3.53,0,0,1,27,25.76v2.51a1,1,0,0,1-1,1H23.91a1,1,0,0,1-1-1V25.76A3.53,3.53,0,0,1,25,19.37M27.5,22.9a2.53,2.53,0,1,0-3.77,2.2.35.35,0,0,1,.18.3v2.87H26V25.4a.35.35,0,0,1,.18-.3,2.52,2.52,0,0,0,1.29-2.2" fill="#231f20"/><polygon points="26.23 35.05 26.61 36.23 24.54 36.81 25.9 38.53 24.87 39.26 23.69 37.37 22.53 39.19 21.5 38.49 22.9 36.73 20.87 36.16 21.25 34.99 23.26 35.8 23.13 33.54 24.4 33.54 24.27 35.84 26.23 35.05" fill="#231f20"/><polygon points="18.44 35.05 18.82 36.23 16.76 36.81 18.11 38.53 17.09 39.26 15.91 37.37 14.74 39.19 13.72 38.49 15.11 36.73 13.08 36.16 13.46 34.99 15.48 35.8 15.35 33.54 16.61 33.54 16.48 35.84 18.44 35.05" fill="#231f20"/><polygon points="10.66 35.05 11.04 36.23 8.97 36.81 10.33 38.53 9.3 39.26 8.12 37.37 6.96 39.19 5.93 38.49 7.33 36.73 5.3 36.16 5.68 34.99 7.69 35.8 7.56 33.54 8.83 33.54 8.7 35.84 10.66 35.05" fill="#231f20"/></svg>
